X: 222
T: Bank of Flowers
%R: march, reel
Z: 2017 John Chambers <jc:trillian.mit.edu>
B: John Treat - "Gamut for the Fifes", 1779, p.22 #2
F: https://archive.org/details/GamutFortheFifes
M: 2/4
L: 1/8
K: G
% - - - - - - - - - - - - - - - - - - - - - - - - -
EF |\
G2B2 B>AB>c | d2B2 B2f2 | g2fe g>fed | e>de>f e2EF |\
G2B2 B>AA>B | d2B2 B2f2 | g2fe g>fed | e6 :|
|:ga |\
b2g2 g2ab | a2d2 d4 | g>fe>d e>fg>e | d2B2 B2GA |\
B>AB>c B>AGA | B>AGA B2f2 | g2fe g>fed | e6 :|
% - - - - - - - - - - - - - - - - - - - - - - - - -

%%sep 1 1 500
%%sep 1 1 500

